X:646
T:Reel 646
L:1/8
M: 4/4
K: A Dorian
EAABcABG|EGBdcABG|EAABcABG|EAAGABcd|EAABcABG|EGBdefge|agedcdBA|GEDGEAAG:||:EAA2eAfA|eAA2gAfe|gedBGABc|dGAFGEDE|A2aAgAaA|eAA2BGAG|EGABcdec|dBGABAAG:|.abc